outputs/icons/enterprise/productivity_apps_round.svg

<svg xmlns="http://www.w3.org/2000/svg" width="1200" height="1200" fill="none"><path fill="#000" d="M700 300h100v600H700zM650 500H550v400h100zM400 700h100v200H400z"/><path fill="#000" fill-rule="evenodd" d="M382.438 50h435.127a82.38 82.38 0 0 1 58.31 24.127A82.4 82.4 0 0 1 900 132.438V1050a100 100 0 0 1-100 100H382.438a82.3 82.3 0 0 1-31.557-6.26 82.4 82.4 0 0 1-26.754-17.865 82.377 82.377 0 0 1-24.127-58.31V132.438a82.38 82.38 0 0 1 24.127-58.311A82.4 82.4 0 0 1 382.438 50M575 1100h50c6.63 0 12.99-2.635 17.68-7.32A25.02 25.02 0 0 0 650 1075a25 25 0 0 0-25-25h-50c-6.63 0-12.99 2.635-17.675 7.325A24.98 24.98 0 0 0 550 1075a25.005 25.005 0 0 0 25 25m-225-100h500V150H350zm162.5-875h175a12.494 12.494 0 0 0 12.5-12.5 12.502 12.502 0 0 0-12.5-12.5h-175a12.502 12.502 0 0 0-8.84 21.339A12.5 12.5 0 0 0 512.5 125"/></svg>

<svg width="1200" height="1200" viewBox="0 0 1200 1200" fill="none" xmlns="http://www.w3.org/2000/svg"><path d="M700 300H800V900H700V300Z" fill="black"/><path d="M650 500H550V900H650V500Z" fill="black"/><path d="M400 700H500V900H400V700Z" fill="black"/><path fill-rule="evenodd" d="M382.438 50H817.565C828.39 49.992 839.115 52.118 849.12 56.258C859.125 60.398 868.215 66.471 875.875 74.127C883.53 81.784 889.6 90.875 893.74 100.88C897.88 110.886 900.01 121.609 900 132.438V1050C900 1076.52 889.465 1101.955 870.71 1120.71C851.955 1139.465 826.52 1150 800 1150H382.438C371.61 1150.01 360.886 1147.88 350.881 1143.74C340.875 1139.6 331.784 1133.53 324.127 1125.875C316.471 1118.215 310.399 1109.125 306.258 1099.12C302.118 1089.115 299.992 1078.39 300 1067.565V132.438C299.992 121.609 302.118 110.886 306.258 100.88C310.399 90.875 316.471 81.784 324.127 74.127C331.784 66.471 340.875 60.398 350.881 56.258C360.886 52.118 371.61 49.992 382.438 50ZM575 1100H625C631.63 1100 637.99 1097.365 642.68 1092.68C647.365 1087.99 650 1081.63 650 1075C650 1068.37 647.365 1062.01 642.68 1057.325C637.99 1052.635 631.63 1050 625 1050H575C568.37 1050 562.01 1052.635 557.325 1057.325C552.635 1062.01 550 1068.37 550 1075C550 1081.63 552.635 1087.99 557.325 1092.68C562.01 1097.365 568.37 1100 575 1100ZM350 1000H850V150H350V1000ZM512.5 125H687.5C690.815 125 693.995 123.683 696.34 121.339C698.685 118.995 700 115.816 700 112.5C700 109.185 698.685 106.005 696.34 103.662C693.995 101.317 690.815 100 687.5 100H512.5C509.185 100 506.005 101.317 503.66 103.662C501.315 106.005 500 109.185 500 112.5C500 115.816 501.315 118.995 503.66 121.339C506.005 123.683 509.185 125 512.5 125Z" fill="black"/></svg>
